X: 31896
T: Peacock Follow The Hen
R: slip jig
M: 9/8
K: Aminor
|:cde cAA cAA|cde cAA B2 A|cde cAA cAA|Bcd ded B2 G:|
|:cde gee gee|cde gee f2 d|cde gee gee|Bcd ded B2 G:|

